!!!OTL: HERE IS THY HOME LOVE AILEEN AROON
!!!ARE: Europa, Mitteleuropa, Ireland
!!!SCT: B0727A
!!!YEM: Copyright 1995, estate of Helmut Schaffrath.
**kern
*ICvox
*Ivox
*M3/4
*k[b-e-]
*B-:
=1
{8.f
16g
8.b-
16cc
8.dd
16cc
=2
8.b-
16a
8.b-
16cc
4dd}
=3
{4f
4g
8.b-
16cc
=4
2.b-}
=5
{8.f
16g
8.b-
16cc
8.dd
16cc
=6
8.b-
16a
8.b-
16cc
4dd}
=7
{4f
4g
8.b-
16cc
=8
2.b-}
=9
{8.ee-
16dd
8ee-
8ff
8ee-
16dd
16cc
=10
8.dd
16cc
8dd
8ee-
8dd
16cc
16b-}
=11
{8.cc
16b-
8cc
8dd
16ee-
16dd
16cc
16b-
=12
8.b-
16cc
8g
16b-
16g
4f}
=13
{4ff
8ee-
8dd
8cc
16b-
16a
=14
8.b-
16a
8.b-
16cc
4dd}
=15
{4f
4g
8.b-
16cc
=16
2.b-}
==
!!!AGN: Liebes - Lied
!!!ONB: ESAC (Essen Associative Code) Database: BOEHME
!!!AMT: simple triple
!!!AIN: vox
!!!EED: Helmut Schaffrath
!!!EEV: 1.0
*-
